Numix-White/48/apps/userinfo.svg

<?xml version="1.0" encoding="UTF-8" standalone="no"?>
<svg
   xmlns:dc="http://purl.org/dc/elements/1.1/"
   xmlns:cc="http://creativecommons.org/ns#"
   xmlns:rdf="http://www.w3.org/1999/02/22-rdf-syntax-ns#"
   xmlns:svg="http://www.w3.org/2000/svg"
   xmlns="http://www.w3.org/2000/svg"
   xmlns:sodipodi="http://sodipodi.sourceforge.net/DTD/sodipodi-0.dtd"
   xmlns:inkscape="http://www.inkscape.org/namespaces/inkscape"
   viewBox="0 0 48 48"
   id="svg2"
   version="1.1"
   inkscape:version="0.91 r13725"
   sodipodi:docname="cs-details.svg">
  <metadata
     id="metadata43">
    <rdf:RDF>
      <cc:Work
         rdf:about="">
        <dc:format>image/svg+xml</dc:format>
        <dc:type
           rdf:resource="http://purl.org/dc/dcmitype/StillImage" />
      </cc:Work>
    </rdf:RDF>
  </metadata>
  <sodipodi:namedview
     pagecolor="#ffffff"
     bordercolor="#666666"
     borderopacity="1"
     objecttolerance="10"
     gridtolerance="10"
     guidetolerance="10"
     inkscape:pageopacity="0"
     inkscape:pageshadow="2"
     inkscape:window-width="749"
     inkscape:window-height="480"
     id="namedview41"
     showgrid="false"
     inkscape:zoom="4.9166667"
     inkscape:cx="24"
     inkscape:cy="24"
     inkscape:window-x="57"
     inkscape:window-y="31"
     inkscape:window-maximized="0"
     inkscape:current-layer="g31" />
  <defs
     id="defs4">
    <linearGradient
       id="linearGradient3764"
       x1="1"
       x2="47"
       gradientUnits="userSpaceOnUse"
       gradientTransform="matrix(0,-1,1,0,-1.5e-6,47.999998)">
      <stop
         style="stop-color:#71cc66;stop-opacity:1"
         id="stop7" />
      <stop
         offset="1"
         style="stop-color:#7fd175;stop-opacity:1"
         id="stop9" />
    </linearGradient>
  </defs>
  <g
     id="g11">
    <path
       d="m 36.31 5 c 5.859 4.062 9.688 10.831 9.688 18.5 c 0 12.426 -10.07 22.5 -22.5 22.5 c -7.669 0 -14.438 -3.828 -18.5 -9.688 c 1.037 1.822 2.306 3.499 3.781 4.969 c 4.085 3.712 9.514 5.969 15.469 5.969 c 12.703 0 23 -10.298 23 -23 c 0 -5.954 -2.256 -11.384 -5.969 -15.469 c -1.469 -1.475 -3.147 -2.744 -4.969 -3.781 z m 4.969 3.781 c 3.854 4.113 6.219 9.637 6.219 15.719 c 0 12.703 -10.297 23 -23 23 c -6.081 0 -11.606 -2.364 -15.719 -6.219 c 4.16 4.144 9.883 6.719 16.219 6.719 c 12.703 0 23 -10.298 23 -23 c 0 -6.335 -2.575 -12.06 -6.719 -16.219 z"
       style="opacity:0.05"
       id="path13" />
    <path
       d="m 41.28 8.781 c 3.712 4.085 5.969 9.514 5.969 15.469 c 0 12.703 -10.297 23 -23 23 c -5.954 0 -11.384 -2.256 -15.469 -5.969 c 4.113 3.854 9.637 6.219 15.719 6.219 c 12.703 0 23 -10.298 23 -23 c 0 -6.081 -2.364 -11.606 -6.219 -15.719 z"
       style="opacity:0.1"
       id="path15" />
    <path
       d="m 31.25 2.375 c 8.615 3.154 14.75 11.417 14.75 21.13 c 0 12.426 -10.07 22.5 -22.5 22.5 c -9.708 0 -17.971 -6.135 -21.12 -14.75 a 23 23 0 0 0 44.875 -7 a 23 23 0 0 0 -16 -21.875 z"
       style="opacity:0.2"
       id="path17" />
  </g>
  <g
     id="g19"
     style="fill:#e6e6e6;fill-opacity:1">
    <path
       d="m 24 1 c 12.703 0 23 10.297 23 23 c 0 12.703 -10.297 23 -23 23 -12.703 0 -23 -10.297 -23 -23 0 -12.703 10.297 -23 23 -23 z"
       style="fill:#e6e6e6;fill-opacity:1"
       id="path21" />
  </g>
  <g
     id="g23">
    <path
       d="m 40.03 7.531 c 3.712 4.084 5.969 9.514 5.969 15.469 0 12.703 -10.297 23 -23 23 c -5.954 0 -11.384 -2.256 -15.469 -5.969 4.178 4.291 10.01 6.969 16.469 6.969 c 12.703 0 23 -10.298 23 -23 0 -6.462 -2.677 -12.291 -6.969 -16.469 z"
       style="opacity:0.1"
       id="path25" />
  </g>
  <g
     transform="matrix(3.543307,0,0,3.543307,-2.8031492e-8,0.00315058)"
     id="g27">
    <path
       d="m 7.06 2.822 c -2.338 0 -4.233 1.895 -4.233 4.233 0 2.338 1.895 4.233 4.233 4.233 2.338 0 4.233 -1.895 4.233 -4.233 0 -2.338 -1.895 -4.233 -4.233 -4.233 z"
       style="fill:#000;opacity:0.1;fill-opacity:1;stroke:none"
       id="path29" />
    <g
       id="g31">
      <ellipse
         cx="-15.542"
         cy="20.04"
         rx="9.218"
         ry="9.52"
         transform="matrix(0.42864748,0,0,0.41501558,13.435426,-1.5453886)"
         style="fill:#51c3c9;fill-opacity:1;stroke:none"
         id="ellipse33" />
      <path
         d="m 6.491 5.644 0 3.387 0.564 0 0 -3.387 z"
         style="fill:#eee;fill-opacity:1;display:inline"
         id="path35" />
      <path
         d="M 7.06,4.798 C 7.06,4.954 6.934,5.08 6.778,5.08 6.622,5.08 6.496,4.954 6.496,4.798 c 0,-0.156 0.126,-0.282 0.282,-0.282 0.156,0 0.282,0.126 0.282,0.282 z"
         style="fill:#eee;fill-opacity:1;display:inline"
         id="path37" />
      <path
         d="M 24,9 C 15.716,9 9,15.716 9,24 9,32.284 15.716,39 24,39 32.284,39 39,32.284 39,24 39,15.716 32.284,9 24,9 m 0,2 c 7.18,0 13,5.82 13,13 0,7.18 -5.82,13 -13,13 -7.18,0 -13,-5.82 -13,-13 0,-7.18 5.82,-13 13,-13 z"
         transform="scale(0.28222223,0.28222223)"
         style="fill:#56e756;fill-opacity:1;stroke:none"
         id="path39" />
    </g>
  </g>
</svg>

<?xml version="1.0" encoding="UTF-8" standalone="no"?>
<svg
   xmlns:dc="http://purl.org/dc/elements/1.1/"
   xmlns:cc="http://creativecommons.org/ns#"
   xmlns:rdf="http://www.w3.org/1999/02/22-rdf-syntax-ns#"
   xmlns:svg="http://www.w3.org/2000/svg"
   xmlns="http://www.w3.org/2000/svg"
   xmlns:sodipodi="http://sodipodi.sourceforge.net/DTD/sodipodi-0.dtd"
   xmlns:inkscape="http://www.inkscape.org/namespaces/inkscape"
   viewBox="0 0 48 48"
   id="svg2"
   version="1.1"
   inkscape:version="0.92.1 r"
   sodipodi:docname="cs-details.svg"
   width="51.200001"
   height="51.200001">
  <metadata
     id="metadata43">
    <rdf:RDF>
      <cc:Work
         rdf:about="">
        <dc:format>image/svg+xml</dc:format>
        <dc:type
           rdf:resource="http://purl.org/dc/dcmitype/StillImage" />
      </cc:Work>
    </rdf:RDF>
  </metadata>
  <sodipodi:namedview
     pagecolor="#ffffff"
     bordercolor="#666666"
     borderopacity="1"
     objecttolerance="10"
     gridtolerance="10"
     guidetolerance="10"
     inkscape:pageopacity="0"
     inkscape:pageshadow="2"
     inkscape:window-width="819"
     inkscape:window-height="480"
     id="namedview41"
     showgrid="false"
     inkscape:zoom="4.9166667"
     inkscape:cx="24"
     inkscape:cy="24"
     inkscape:window-x="66"
     inkscape:window-y="31"
     inkscape:window-maximized="0"
     inkscape:current-layer="svg2" />
  <defs
     id="defs4">
    <linearGradient
       id="linearGradient3764"
       x1="1"
       x2="47"
       gradientUnits="userSpaceOnUse"
       gradientTransform="rotate(-90,23.999998,24)">
      <stop
         style="stop-color:#71cc66;stop-opacity:1"
         id="stop7" />
      <stop
         offset="1"
         style="stop-color:#7fd175;stop-opacity:1"
         id="stop9" />
    </linearGradient>
  </defs>
  <g
     id="g11">
    <path
       d="m 36.31,5 c 5.859,4.062 9.688,10.831 9.688,18.5 0,12.426 -10.07,22.5 -22.5,22.5 -7.669,0 -14.438,-3.828 -18.5,-9.688 1.037,1.822 2.306,3.499 3.781,4.969 4.085,3.712 9.514,5.969 15.469,5.969 12.703,0 23,-10.298 23,-23 0,-5.954 -2.256,-11.384 -5.969,-15.469 C 39.81,7.306 38.132,6.037 36.31,5 Z m 4.969,3.781 c 3.854,4.113 6.219,9.637 6.219,15.719 0,12.703 -10.297,23 -23,23 -6.081,0 -11.606,-2.364 -15.719,-6.219 4.16,4.144 9.883,6.719 16.219,6.719 12.703,0 23,-10.298 23,-23 0,-6.335 -2.575,-12.06 -6.719,-16.219 z"
       style="opacity:0.05"
       id="path13"
       inkscape:connector-curvature="0" />
    <path
       d="m 41.28,8.781 c 3.712,4.085 5.969,9.514 5.969,15.469 0,12.703 -10.297,23 -23,23 -5.954,0 -11.384,-2.256 -15.469,-5.969 4.113,3.854 9.637,6.219 15.719,6.219 12.703,0 23,-10.298 23,-23 0,-6.081 -2.364,-11.606 -6.219,-15.719 z"
       style="opacity:0.1"
       id="path15"
       inkscape:connector-curvature="0" />
    <path
       d="M 31.25,2.375 C 39.865,5.529 46,13.792 46,23.505 c 0,12.426 -10.07,22.5 -22.5,22.5 -9.708,0 -17.971,-6.135 -21.12,-14.75 a 23,23 0 0 0 44.875,-7 23,23 0 0 0 -16,-21.875 z"
       style="opacity:0.2"
       id="path17"
       inkscape:connector-curvature="0" />
  </g>
  <g
     id="g19"
     style="fill:#ececec;fill-opacity:1">
    <path
       d="M 24,1 C 36.703,1 47,11.297 47,24 47,36.703 36.703,47 24,47 11.297,47 1,36.703 1,24 1,11.297 11.297,1 24,1 Z"
       style="fill:#ececec;fill-opacity:1"
       id="path21"
       inkscape:connector-curvature="0" />
  </g>
  <g
     id="g23">
    <path
       d="m 40.03,7.531 c 3.712,4.084 5.969,9.514 5.969,15.469 0,12.703 -10.297,23 -23,23 C 17.045,46 11.615,43.744 7.53,40.031 11.708,44.322 17.54,47 23.999,47 c 12.703,0 23,-10.298 23,-23 0,-6.462 -2.677,-12.291 -6.969,-16.469 z"
       style="opacity:0.1"
       id="path25"
       inkscape:connector-curvature="0" />
  </g>
  <g
     transform="matrix(3.543307,0,0,3.543307,-2.8031492e-8,0.00315058)"
     id="g27">
    <path
       d="m 7.06,2.822 c -2.338,0 -4.233,1.895 -4.233,4.233 0,2.338 1.895,4.233 4.233,4.233 2.338,0 4.233,-1.895 4.233,-4.233 0,-2.338 -1.895,-4.233 -4.233,-4.233 z"
       style="opacity:0.1;fill:#000000;fill-opacity:1;stroke:none"
       id="path29"
       inkscape:connector-curvature="0" />
    <g
       id="g31">
      <ellipse
         cx="-15.542"
         cy="20.040001"
         rx="9.2180004"
         ry="9.5200005"
         transform="matrix(0.42864748,0,0,0.41501558,13.435426,-1.5453886)"
         style="fill:#51c3c9;fill-opacity:1;stroke:none"
         id="ellipse33" />
      <path
         d="M 6.491,5.644 V 9.031 H 7.055 V 5.644 Z"
         style="display:inline;fill:#eeeeee;fill-opacity:1"
         id="path35"
         inkscape:connector-curvature="0" />
      <path
         d="M 7.06,4.798 C 7.06,4.954 6.934,5.08 6.778,5.08 6.622,5.08 6.496,4.954 6.496,4.798 c 0,-0.156 0.126,-0.282 0.282,-0.282 0.156,0 0.282,0.126 0.282,0.282 z"
         style="display:inline;fill:#eeeeee;fill-opacity:1"
         id="path37"
         inkscape:connector-curvature="0" />
      <path
         d="M 24,9 C 15.716,9 9,15.716 9,24 9,32.284 15.716,39 24,39 32.284,39 39,32.284 39,24 39,15.716 32.284,9 24,9 m 0,2 c 7.18,0 13,5.82 13,13 0,7.18 -5.82,13 -13,13 -7.18,0 -13,-5.82 -13,-13 0,-7.18 5.82,-13 13,-13 z"
         transform="scale(0.28222223)"
         style="fill:#56e756;fill-opacity:1;stroke:none"
         id="path39"
         inkscape:connector-curvature="0" />
    </g>
  </g>
</svg>
